X: 04070
T: The OLD SQUEEZE-BOX
C: Bob McQuillen 29 Aug 79
B: Bob's Note Book 04 #70
R: polka
Z: 2020 John Chambers <jc:trillian.mit.edu>
M: C
L: 1/8
K: G
GA \
| B2BA GABG | c2G2 G3c  | B2BA GABG | A2D2 D2GA \
| B2BA GABG | c2cB ABcA | BAGB A2F2 | G6 :|
|: Bc \
| d2dc Bcd2 | g2e2 e3f  | g2d2 dBGB | A6 Bc \
| d2dc Bcd2 | g2gf efge | dBGB cAFA | G6 :|
%%begintext align
%% I had a chance to play a real old
%% Hohner accordion the other day,
%% and this tune came tinkling
%% out - I hope you like it!
%%endtext

%%sep 1 1 500

%%sep 1 1 500

